X: 9038
T: Da Eye Wifie
R: reel
M: 4/4
K: Dmajor
D2FD EFGE|FD(3DDD DFED|B,EED EFGA|BFAF Egfe|
fddd BAFB|Adcd BAFD|DE(3EEE AFED|1 B,A,A,B, D2(3A,B,C:|2 B,A,A,B, D2fg||
fddd cdBd|Adcd edcd|Bdgd Adfd|Acec Aage|
fddd cdBd|Adcd BAFD|DE(3EEE AFED|1 B,A,A,B, D2fg:|2 B,A,A,B, D2(3A,B,C||

